X: 25077
T: Maids Of Kilmallock, The
R: reel
M: 4/4
K: Dmajor
ADFD A2 AB|ADFA BE E2|ADFA Beed|1 cABc dedB:|2 cABc d2A2||
d2~d2 dfed|cAAA ecAc|d2 dc dfed|cABc d2 A2|
defg afed|cAAA ecAg|afge fded|cABc dedB||

